X: 1
T: Ships are Sailing
%D:1883
R: march
%S: s:2 b:10(5+5)
S: Fiddle Hell Online 2021-04-15 Rodney Miller jam handout
B: Ryan's "Mammoth Collection" p.36 1883
B: O'Neill "Music of Ireland: 1850 Melodies" 1903 p.237 #1264
B: O'Neill "DanceMusic of Ireland: 1001 Gems" 1907 p.99 #532
Z: 2021 John Chambers <jc:trillian.mit.edu>
M: C|
L: 1/8
K: Edor
|: "Em"Beed BcdB | "D"A2F{E}D ADF{E}D | "Em"E^DEF GFGA |1,3 Beef "Bm"gfed :|2,4 "Bm"Bee^d "Em"e4 :|
|:: "Em"gfga bgeg |1,3 "D"fefg afdf :|2 "D"afdf "Em"e2ef :| "G"g2bg "D"f2af | "Em"edef "Bm"gfed :|
%%text The sharped D notes are often not sharped.
